icons/checkbox-uncheck.svg

<svg xmlns="http://www.w3.org/2000/svg" width="96" height="96"><path d="M12 4h72c2.1 0 4.2.8 5.7 2.3C91.2 7.8 92 9.9 92 12v72c0 2.1-.8 4.2-2.3 5.7-1.5 1.5-3.6 2.3-5.7 2.3H12c-2.1 0-4.2-.8-5.7-2.3C4.8 88.2 4 86.1 4 84V12c0-2.1.8-4.2 2.3-5.7C7.8 4.8 9.9 4 12 4zm0 8h72v72H12V12z" fill-rule="evenodd" fill="#454545"/></svg>

<?xml version="1.0" standalone="no"?><!-- Generator: Gravit.io --><svg xmlns="http://www.w3.org/2000/svg" xmlns:xlink="http://www.w3.org/1999/xlink" width="96" height="96"><path d=" M 12 4 L 84 4 C 86.1 4 88.2 4.8 89.7 6.3 C 91.2 7.8 92 9.9 92 12 L 92 84 C 92 86.1 91.2 88.2 89.7 89.7 C 88.2 91.2 86.1 92 84 92 L 12 92 C 9.9 92 7.8 91.2 6.3 89.7 C 4.8 88.2 4 86.1 4 84 L 4 12 C 4 9.9 4.8 7.8 6.3 6.3 C 7.8 4.8 9.9 4 12 4 Z  M 12 12 L 84 12 L 84 84 L 12 84 L 12 12 Z " fill-rule="evenodd" fill="#454545" stroke="none"/><mask id="_mask_wh0aWDlLkdfiEfgZp4JrCD5SrQIRxxHH"><path d=" M 12 4 L 84 4 C 86.1 4 88.2 4.8 89.7 6.3 C 91.2 7.8 92 9.9 92 12 L 92 84 C 92 86.1 91.2 88.2 89.7 89.7 C 88.2 91.2 86.1 92 84 92 L 12 92 C 9.9 92 7.8 91.2 6.3 89.7 C 4.8 88.2 4 86.1 4 84 L 4 12 C 4 9.9 4.8 7.8 6.3 6.3 C 7.8 4.8 9.9 4 12 4 Z  M 12 12 L 84 12 L 84 84 L 12 84 L 12 12 Z " fill-rule="evenodd" fill="white" stroke="none"/></mask><path d=" M 12 4 L 84 4 C 86.1 4 88.2 4.8 89.7 6.3 C 91.2 7.8 92 9.9 92 12 L 92 84 C 92 86.1 91.2 88.2 89.7 89.7 C 88.2 91.2 86.1 92 84 92 L 12 92 C 9.9 92 7.8 91.2 6.3 89.7 C 4.8 88.2 4 86.1 4 84 L 4 12 C 4 9.9 4.8 7.8 6.3 6.3 C 7.8 4.8 9.9 4 12 4 Z  M 12 12 L 84 12 L 84 84 L 12 84 L 12 12 Z " fill-rule="evenodd" fill="none" stroke="none" stroke-width="16" mask="url(#_mask_wh0aWDlLkdfiEfgZp4JrCD5SrQIRxxHH)"/></svg>
